app/component-library/components/Icons/Icon/assets/trend-up.svg

<svg width="24" height="24" viewBox="0 0 24 24" fill="none" xmlns="http://www.w3.org/2000/svg">
<path d="M16.4713 2H8.09125C4.45125 2 2.28125 4.17 2.28125 7.81V16.18C2.28125 19.83 4.45125 22 8.09125 22H16.4613C20.1013 22 22.2712 19.83 22.2712 16.19V7.81C22.2812 4.17 20.1113 2 16.4713 2ZM17.1612 11.53C17.1612 11.92 16.8513 12.23 16.4613 12.23C16.0713 12.23 15.7612 11.92 15.7612 11.53V11.35L13.0413 14.07C12.8913 14.22 12.6912 14.29 12.4812 14.27C12.2712 14.25 12.0812 14.14 11.9712 13.96L10.9513 12.44L8.57125 14.82C8.43125 14.96 8.26125 15.02 8.08125 15.02C7.90125 15.02 7.72125 14.95 7.59125 14.82C7.32125 14.55 7.32125 14.11 7.59125 13.83L10.5712 10.85C10.7212 10.7 10.9213 10.63 11.1313 10.65C11.3413 10.67 11.5312 10.78 11.6412 10.96L12.6613 12.48L14.7712 10.37H14.5913C14.2013 10.37 13.8912 10.06 13.8912 9.67C13.8912 9.28 14.2013 8.97 14.5913 8.97H16.4513C16.5413 8.97 16.6313 8.99 16.7213 9.02C16.8913 9.09 17.0312 9.23 17.1012 9.4C17.1412 9.49 17.1513 9.58 17.1513 9.67V11.53H17.1612Z" fill="currentColor"/>
</svg>

<svg xmlns="http://www.w3.org/2000/svg" width="24" height="24" viewBox="0 0 24 24" fill="none"><path fill="currentColor" d="M16.471 2h-8.38c-3.64 0-5.81 2.17-5.81 5.81v8.37c0 3.65 2.17 5.82 5.81 5.82h8.37c3.64 0 5.81-2.17 5.81-5.81V7.81c.01-3.64-2.16-5.81-5.8-5.81Zm.69 9.53c0 .39-.31.7-.7.7-.39 0-.7-.31-.7-.7v-.18l-2.72 2.72c-.15.15-.35.22-.56.2a.665.665 0 0 1-.51-.31l-1.02-1.52-2.38 2.38c-.14.14-.31.2-.49.2s-.36-.07-.49-.2a.706.706 0 0 1 0-.99l2.98-2.98c.15-.15.35-.22.56-.2.21.02.4.13.51.31l1.02 1.52 2.11-2.11h-.18c-.39 0-.7-.31-.7-.7 0-.39.31-.7.7-.7h1.86c.09 0 .18.02.27.05.17.07.31.21.38.38.04.09.05.18.05.27v1.86h.01Z"/></svg>
